X:125
T: Old Peadar Carthy's
S: Darley & McCall Collection
Z: B.Black (arr.)
L: 1/8
M: 4/4
R: hornpipe
K: G
G3D GFGA|BdcB cB A2|G3D GFGA|BdcA G4|
G3D GFGA|BdcB cB A2|G2 ED GFGA|BdcA G4 :|
d3B dcde|g2 fa gf e2|d3B dcde|gafg e3B|
d3B dcde|g2 fg ed B2|G2 ED GFGA|BdcA G4 :|



